svg/300/rounded/present_to_all-fill.svg

<svg xmlns="http://www.w3.org/2000/svg" width="48" height="48" viewBox="0 -960 960 960"><path d="M457.924-537.001v175.385q0 9.308 6.884 15.692 6.885 6.385 15.807 6.385 9.308 0 15.692-6.885 6.385-6.884 6.385-15.807v-174.77l69.154 69.77q6.308 6.692 15.615 7.192 9.308.5 16-6.192 7.077-7.077 7.077-16.307 0-9.231-7.077-16.308l-103.846-104.23q-9-8.615-20.423-8.615-11.423 0-20.038 8.615l-104.23 104.23q-6.693 6.692-6.577 15.808.115 9.115 7.192 16.192 7.077 7.076 16.307 6.884 9.231-.192 16.308-6.884l69.77-70.155Zm-300.23 357q-23.616 0-40.654-17.039-17.039-17.038-17.039-40.654v-484.612q0-23.616 17.039-40.654 17.038-17.039 40.654-17.039h644.612q23.616 0 40.654 17.039 17.039 17.038 17.039 40.654v484.612q0 23.616-17.039 40.654-17.038 17.039-40.654 17.039H157.694Z"/></svg>

<svg xmlns="http://www.w3.org/2000/svg" width="48" height="48" viewBox="0 -960 960 960"><path d="M457.92-537v175.38q0 9.31 6.89 15.7 6.88 6.38 15.81 6.38 9.3 0 15.69-6.88 6.38-6.89 6.38-15.81V-537l69.16 69.77q6.3 6.69 15.61 7.19 9.31.5 16-6.19 7.08-7.08 7.08-16.31 0-9.23-7.08-16.31L499.62-603.08q-9-8.61-20.43-8.61-11.42 0-20.04 8.61L354.92-498.85q-6.69 6.7-6.57 15.81.11 9.12 7.19 16.19 7.08 7.08 16.31 6.89 9.23-.19 16.3-6.89L457.92-537ZM157.69-180q-23.61 0-40.65-17.04T100-237.69v-484.62q0-23.61 17.04-40.65T157.69-780h644.62q23.61 0 40.65 17.04T860-722.31v484.62q0 23.61-17.04 40.65T802.31-180H157.69Z"/></svg>
